X: 28488
T: Mungo Kelly's
R: reel
M: 4/4
K: Edorian
GEBE GEDE|GEBE G2BA|GBDEG2 (3Bcd|efge dBBA|
GEBE GEDE|GEBE G2BA|GEDE G2 (3Bcd|e2ge dBBA||
(3Bcd ef ~g3f|eaaf gfed|(3Bcd ef ~g2fg|afge dBBA:|

